X: 3
T: Miss Sarah Drummond Of Perth
R: strathspey
M: 4/4
L: 1/8
K: Ador
|: (3efg |a2 e>a c>ae>f | g2 d>g B>gd>g | a2 e>a c>ae>f | g>ed>B B>AA>g |
a2 e>a c>ae>f | g2 d>g B>gd>g | a>fg>e f>de>d | B>gd>B B>A :|
|: A>f |e>AA>B c>de>d | g2 G>A B>AB>d | e>AA>B c>de>d | g2 G>A B>AA>a |
e>AA>B c>de>d | g2 G>A B>AB>d | e>AA>B c>de>d | g2 G>A B>A A2 :|


Tune 1556	Setting 29959

